icons/hepatology_fill.svg

<svg width="48" height="48" viewBox="0 0 48 48" fill="none" xmlns="http://www.w3.org/2000/svg">
<path fill-rule="evenodd" clip-rule="evenodd" d="M6 9C6 7.34315 7.34315 6 9 6H39C40.6569 6 42 7.34315 42 9V39C42 40.6569 40.6569 42 39 42H22.0122V29H20.0122V42H9C7.34315 42 6 40.6569 6 39V9ZM11.5522 35C7.78588 35 8.7152 22.8214 10.9585 18.1071C13.2019 13.3929 16.2718 13 22.549 13C26.3943 13 27.3694 13.6161 28.1249 14.0934C28.6028 14.3954 28.9928 14.6418 29.9656 14.6418C30.9699 14.6418 32.3761 14.3266 33.7822 14.0113C35.8913 13.5385 38.0005 13.0657 38.7537 13.6567C40.0092 14.6418 36.2428 21.8657 32.4765 21.8657C30.5379 21.8657 29.3753 23.3259 28.247 24.7432C27.1833 26.0794 26.1499 27.3774 24.5253 27.3774C22.8513 27.3774 21.8051 27.9696 20.7589 28.5618C19.7127 29.1541 18.6665 29.7463 16.9925 29.7463C15.6197 29.7463 15.166 30.9001 14.6838 32.1262C14.137 33.5166 13.5536 35 11.5522 35Z" fill="black"/>
<path fill-rule="evenodd" clip-rule="evenodd" d="M22.0729 15.0271C22.6547 13.3685 23.8584 11.35 26.3146 10.0103L27.2723 11.766C25.3579 12.8102 24.4236 14.3677 23.9601 15.6891C23.7274 16.3526 23.6162 16.9507 23.5636 17.3796C23.5373 17.5933 23.5259 17.7627 23.521 17.8745C23.5185 17.9303 23.5177 17.9715 23.5174 17.9964L23.5173 18.0213C23.5174 18.0233 23.5174 18.0242 23.5174 18.024L23.5174 18.023L23.5173 18.0218L23.5173 18.021C23.5173 18.0206 23.5173 18.0202 22.5175 18.04C21.5177 18.0599 21.5177 18.0594 21.5177 18.0589L21.5177 18.0578L21.5176 18.0554L21.5175 18.0491L21.5174 18.0313C21.5173 18.0172 21.5173 17.9984 21.5176 17.9754C21.518 17.9293 21.5194 17.8657 21.5229 17.7865C21.5299 17.6282 21.5452 17.4065 21.5784 17.136C21.6446 16.5964 21.783 15.8535 22.0729 15.0271Z" fill="black"/>
<path d="M14.2719 25.2575C16.5503 26.9281 21.1069 25.2575 21.1069 25.2575V22.7513C21.1069 22.7513 18.8286 24.84 16.1705 22.7513C13.5125 20.6627 11.9935 23.5869 14.2719 25.2575Z" fill="black"/>
<path fill-rule="evenodd" clip-rule="evenodd" d="M21.049 20.6285C21.5889 20.156 22.3113 19.8347 22.9988 19.8347V21.8347C22.8917 21.8347 22.6208 21.9107 22.366 22.1336C22.1302 22.34 22.0122 22.5801 22.0122 22.8214V28.9998L20.0122 28.9999V22.8214C20.0122 21.8706 20.4902 21.1174 21.049 20.6285Z" fill="black"/>
</svg>

<svg
  xmlns="http://www.w3.org/2000/svg"
  width="24"
  height="24"
  viewBox="0 0 24 24"
  fill="none"
  stroke="currentColor"
  stroke-width="2"
  stroke-linecap="round"
  stroke-linejoin="round"
>
  <path
    fill-rule="evenodd"
    d="M6 9a3 3 0 0 1 3-3h30a3 3 0 0 1 3 3v30a3 3 0 0 1-3 3H22.012V29h-2v13H9a3 3 0 0 1-3-3zm5.552 26c-3.766 0-2.837-12.179-.593-16.893C13.202 13.393 16.272 13 22.549 13c3.845 0 4.82.616 5.576 1.093.478.302.868.549 1.84.549 1.005 0 2.411-.315 3.817-.63 2.11-.473 4.219-.946 4.972-.355 1.255.985-2.511 8.209-6.277 8.209-1.94 0-3.102 1.46-4.23 2.877-1.064 1.336-2.097 2.634-3.722 2.634-1.674 0-2.72.593-3.766 1.185s-2.093 1.184-3.767 1.184c-1.372 0-1.826 1.154-2.308 2.38-.547 1.39-1.13 2.874-3.132 2.874"
    clip-rule="evenodd"
  />
  <path
    fill-rule="evenodd"
    d="M22.073 15.027c.582-1.658 1.785-3.677 4.242-5.017l.957 1.756c-1.914 1.044-2.848 2.602-3.312 3.923a8 8 0 0 0-.396 1.69 6 6 0 0 0-.047.617v.028-.003l-1 .019-1 .019v-.084q0-.07.006-.189c.007-.158.022-.38.055-.65.067-.54.205-1.282.495-2.109"
    clip-rule="evenodd"
  />
  <path d="M14.272 25.258c2.278 1.67 6.835 0 6.835 0V22.75s-2.278 2.089-4.936 0-4.177.836-1.9 2.506" />
  <path
    fill-rule="evenodd"
    d="M21.049 20.629c.54-.473 1.262-.794 1.95-.794v2c-.107 0-.378.076-.633.299-.236.206-.354.446-.354.687V29h-2V22.82c0-.95.478-1.704 1.037-2.193"
    clip-rule="evenodd"
  />
</svg>
